dist/img/polygonal/polygonal6.svg

<?xml version="1.0" encoding="UTF-8" standalone="yes"?>
<svg xmlns="http://www.w3.org/2000/svg" viewBox="0 0 50 50">
  <path d="M35.826 14.75l-3.465 6h6.93zm0 13l3.463-6h-6.93zm-20.786-6l3.466 6 3.463-6zm-4.33 6.5h6.93l-3.464-6zm24.25 0l-3.464-6-3.465 6zm-20.784 7l3.463-6h-6.93zm6.574-24.54l-6 3.464 6 3.465zm1 0v6.93l6-3.466zm0 17.32v6.93l6-3.466zm6.5 11.26v-6.93l-6 3.464zm0-17.32v-6.93l-6 3.464zm1 17.32l6-3.466-6-3.463z"/>
</svg>

<?xml version="1.0" encoding="UTF-8" standalone="yes"?>
<svg xmlns="http://www.w3.org/2000/svg" viewBox="0 0 50 50">
  <path d="M35.826 14.75l-3.465 6h6.93zM35.826 27.75l3.463-6h-6.93zM15.04 21.75l3.466 6 3.463-6zM10.71 28.25h6.93l-3.464-6zM34.96 28.25l-3.464-6-3.465 6zM14.176 35.25l3.463-6h-6.93zM20.75 10.71l-6 3.464 6 3.465zM21.75 10.71v6.93l6-3.466zM21.75 28.03v6.93l6-3.466zM28.25 39.29v-6.93l-6 3.464zM28.25 21.97v-6.93l-6 3.464zM29.25 39.29l6-3.466-6-3.463z"/>
</svg>
